X:412
T: Dongshan chang ge xishan he
N: C1447
O: China,Hubei, Zhuxi
S: I, 436]
R: Shange, Tiange, Haocao haozi, Pingqiang]
M: 2/4
L: 1/16
K: Eb
f2f4ec | B3ce2e2 | f2fecec2 | B4B4 | c4
f2f2f4 | c2efe4 | f4e2c2 | c2B2B4 | c4
f2e4c2 | B3ce2e2 | f2fee2c2 | B4B4 | c4
f2e2e2c2 | e2e4e2 | f4B4 | c2d2c4 | c4
f2e4c2 | B3ce2e2 | f2fee2c2 | B4B4 | c4
f2cee4 | cec2z4 | e4B4 | c2B2B4 | c4
f2e4c2 | B3ce2e2 | f2fee2c2 | B4B4

@@@ Tune index: 6413
